public/contacts-tg-icon.svg

<svg width="46" height="46" viewBox="0 0 46 46" fill="none" xmlns="http://www.w3.org/2000/svg">
<g filter="url(#filter0_d_5162_150)">
<rect x="0.5" y="0.303711" width="42" height="42" rx="21" fill="#29BCAD" shape-rendering="crispEdges"/>
<path d="M21.7742 15.3194C20.1191 16.0368 16.8112 17.5217 11.8505 19.774C11.0449 20.1078 10.623 20.4344 10.5846 20.7537C10.5196 21.2934 11.1681 21.5059 12.0513 21.7953C12.1714 21.8347 12.2958 21.8755 12.4234 21.9187C13.2923 22.213 14.461 22.5573 15.0686 22.571C15.6197 22.5834 16.2349 22.3466 16.914 21.8606C21.5489 18.6002 23.9415 16.9522 24.0917 16.9166C24.1976 16.8916 24.3445 16.86 24.444 16.9522C24.5435 17.0444 24.5337 17.2189 24.5232 17.2657C24.4589 17.5511 21.9133 20.0175 20.5959 21.2938C20.1852 21.6917 19.8939 21.974 19.8344 22.0384C19.7009 22.1828 19.565 22.3194 19.4343 22.4507C18.6272 23.2616 18.0219 23.8697 19.4678 24.8627C20.1627 25.3399 20.7187 25.7345 21.2735 26.1282C21.8793 26.5581 22.4835 26.9869 23.2654 27.521C23.4646 27.6571 23.6548 27.7984 23.8401 27.9361C24.5451 28.4599 25.1785 28.9305 25.961 28.8554C26.4157 28.8118 26.8854 28.3662 27.124 27.0373C27.6877 23.8967 28.7958 17.092 29.0519 14.288C29.0743 14.0423 29.0461 13.7279 29.0234 13.5899C29.0007 13.4518 28.9534 13.2552 28.7812 13.1096C28.5773 12.9372 28.2626 12.9009 28.1218 12.9034C27.4818 12.9152 26.4999 13.271 21.7742 15.3194Z" fill="white"/>
</g>
<defs>
<filter id="filter0_d_5162_150" x="0.5" y="0.303711" width="45.36" height="45.36" filterUnits="userSpaceOnUse" color-interpolation-filters="sRGB">
<feFlood flood-opacity="0" result="BackgroundImageFix"/>
<feColorMatrix in="SourceAlpha" type="matrix" values="0 0 0 0 0 0 0 0 0 0 0 0 0 0 0 0 0 0 127 0" result="hardAlpha"/>
<feOffset dx="3.36" dy="3.36"/>
<feComposite in2="hardAlpha" operator="out"/>
<feColorMatrix type="matrix" values="0 0 0 0 0.160784 0 0 0 0 0.737255 0 0 0 0 0.678431 0 0 0 0.5 0"/>
<feBlend mode="normal" in2="BackgroundImageFix" result="effect1_dropShadow_5162_150"/>
<feBlend mode="normal" in="SourceGraphic" in2="effect1_dropShadow_5162_150" result="shape"/>
</filter>
</defs>
</svg>

<svg width="46" height="46" fill="none" xmlns="http://www.w3.org/2000/svg"><g filter="url(#a)"><rect x=".5" y=".304" width="42" height="42" rx="21" fill="#29BCAD" shape-rendering="crispEdges"/><path d="M21.774 15.32c-1.655.717-4.963 2.202-9.924 4.454-.805.334-1.227.66-1.265.98-.065.54.583.752 1.466 1.041.12.04.245.08.372.124.87.294 2.038.638 2.646.652.55.012 1.166-.224 1.845-.71 4.635-3.26 7.027-4.909 7.178-4.944.106-.025.253-.057.352.035.1.092.09.267.08.314-.065.285-2.61 2.752-3.928 4.028-.41.398-.702.68-.762.744-.133.145-.269.281-.4.413-.807.81-1.412 1.419.034 2.412.695.477 1.25.872 1.805 1.265.606.43 1.21.859 1.992 1.393.2.136.39.277.575.415.705.524 1.338.994 2.121.92.455-.044.924-.49 1.163-1.819.564-3.14 1.672-9.945 1.928-12.749a3.257 3.257 0 0 0-.029-.698c-.022-.138-.07-.335-.242-.48-.204-.173-.518-.21-.66-.207-.64.012-1.621.368-6.347 2.416Z" fill="#fff"/></g><defs><filter id="a" x=".5" y=".304" width="45.36" height="45.36" filterUnits="userSpaceOnUse" color-interpolation-filters="sRGB"><feFlood flood-opacity="0" result="BackgroundImageFix"/><feColorMatrix in="SourceAlpha" values="0 0 0 0 0 0 0 0 0 0 0 0 0 0 0 0 0 0 127 0" result="hardAlpha"/><feOffset dx="3.36" dy="3.36"/><feComposite in2="hardAlpha" operator="out"/><feColorMatrix values="0 0 0 0 0.160784 0 0 0 0 0.737255 0 0 0 0 0.678431 0 0 0 0.5 0"/><feBlend in2="BackgroundImageFix" result="effect1_dropShadow_5162_150"/><feBlend in="SourceGraphic" in2="effect1_dropShadow_5162_150" result="shape"/></filter></defs></svg>
